packages/core/src/svgs/tokens/branded/MWC.svg

<svg width="24" height="24" viewBox="0 0 24 24" fill="none" xmlns="http://www.w3.org/2000/svg">
<path d="M17.7032 7.20158C19.6027 9.09108 20.9372 10.4257 21.6971 11.2005C21.882 11.3905 21.9821 11.6354 21.997 11.9303C22.0219 12.3003 21.892 12.6301 21.6121 12.91C20.4324 14.0848 19.2227 15.2944 17.9931 16.544C17.5132 17.029 16.9533 17.1489 16.3435 16.794C16.254 16.7206 16.1673 16.644 16.0836 16.5641L12.8994 13.3649C12.4045 12.865 11.8847 12.8051 11.3348 13.175C11.1149 13.3249 10.8949 13.5849 10.685 13.7848C9.76318 14.7025 8.84672 15.6257 7.93574 16.5541C7.6958 16.799 7.45586 16.939 7.21093 16.974C6.52111 17.0739 6.2262 16.759 5.77631 16.3041C4.65661 15.1595 3.52691 14.0297 2.39721 12.905C2.17848 12.706 2.03986 12.4342 2.00731 12.1402C1.95733 11.6254 2.16727 11.3255 2.52718 10.9656L6.16621 7.32154C6.23619 7.25156 6.33117 7.20158 6.41614 7.14159C7.08096 6.82668 7.55084 7.07161 8.04071 7.56647C9.08021 8.62469 10.1266 9.67608 11.1798 10.7207C11.4104 10.9376 11.7174 11.0546 12.034 11.0462C12.3504 11.0378 12.6507 10.9046 12.8694 10.6756L16.1236 7.40152C16.5784 6.95164 17.1033 6.88166 17.6981 7.20158H17.7032Z" fill="url(#paint0_linear_364_13497)"/>
<defs>
<linearGradient id="paint0_linear_364_13497" x1="2.00001" y1="12" x2="22" y2="12" gradientUnits="userSpaceOnUse">
<stop stop-color="#3B00CA"/>
<stop offset="1" stop-color="#9A00E6"/>
</linearGradient>
</defs>
</svg>

<svg xmlns="http://www.w3.org/2000/svg" width="24" height="24" fill="none" viewBox="0 0 24 24">
    <path fill="url(#MWC__a)" d="M17.703 7.202a547 547 0 0 1 3.994 3.999q.277.285.3.73c.025.37-.105.7-.385.979a503 503 0 0 0-3.619 3.634c-.48.485-1.04.605-1.65.25a5 5 0 0 1-.26-.23l-3.184-3.2c-.494-.499-1.014-.559-1.564-.189-.22.15-.44.41-.65.61q-1.383 1.376-2.75 2.77-.359.366-.724.419c-.69.1-.985-.215-1.435-.67a363 363 0 0 0-3.379-3.399 1.2 1.2 0 0 1-.39-.765c-.05-.515.16-.815.52-1.174l3.64-3.644c.07-.07.164-.12.25-.18.664-.315 1.134-.07 1.624.424q1.56 1.588 3.139 3.155a1.2 1.2 0 0 0 1.69-.045l3.254-3.274c.454-.45.98-.52 1.574-.2z"/>
    <defs>
        <linearGradient id="MWC__a" x1="2" x2="22" y1="12" y2="12" gradientUnits="userSpaceOnUse">
            <stop stop-color="#3B00CA"/>
            <stop offset="1" stop-color="#9A00E6"/>
        </linearGradient>
    </defs>
</svg>
